build/dist/assets/images/services/services-3.svg

<svg width="81" height="72" viewBox="0 0 81 72" fill="none" xmlns="http://www.w3.org/2000/svg">
<path d="M26.5044 13.1053C25.9478 13.1053 25.3913 12.8905 24.9665 12.4611L23.6163 11.0918C23.4135 10.8873 23.2527 10.6441 23.1432 10.3762C23.0338 10.1082 22.9778 9.82097 22.9785 9.53097C22.9785 8.94211 23.2055 8.38797 23.6163 7.9714L24.5012 7.0714C25.7222 5.83454 27.7076 5.83454 28.9286 7.0714C30.1495 8.30825 30.1495 10.323 28.9286 11.5611L28.0436 12.4598C27.8417 12.665 27.6017 12.8276 27.3376 12.9384C27.0734 13.0492 26.7903 13.1059 26.5044 13.1053ZM25.6626 9.53097L26.5044 10.3847L27.1358 9.7444C27.2393 9.62955 27.295 9.47869 27.2916 9.3232C27.2881 9.1677 27.2256 9.01955 27.1172 8.90957C27.0087 8.79959 26.8627 8.73625 26.7093 8.73274C26.556 8.72922 26.4072 8.78579 26.294 8.89068L25.6626 9.53097ZM48.4067 13.1053C47.8501 13.1053 47.2922 12.8905 46.8688 12.4611L45.9825 11.5624C45.3904 10.9633 45.0646 10.1661 45.0646 9.31754C45.0646 8.46897 45.3904 7.67182 45.9825 7.0714C46.5703 6.47721 47.3663 6.14355 48.1962 6.14355C49.0261 6.14355 49.8222 6.47721 50.4099 7.0714L51.2948 7.97011C51.7056 8.38668 51.9326 8.94082 51.9326 9.52968C51.9326 10.1198 51.7056 10.674 51.2936 11.0905L49.9458 12.4598C49.7439 12.665 49.504 12.8276 49.2398 12.9384C48.9757 13.0492 48.6925 13.1059 48.4067 13.1053ZM48.1962 8.71454C48.0782 8.71336 47.9625 8.74798 47.864 8.81395C47.7655 8.87992 47.6887 8.97424 47.6435 9.08479C47.5982 9.19534 47.5866 9.31709 47.6101 9.43439C47.6336 9.55169 47.6911 9.6592 47.7753 9.74311L48.4067 10.3834L49.2485 9.53097L48.6171 8.89068C48.5053 8.77777 48.354 8.71443 48.1962 8.71454ZM46.6088 65.8581C40.9174 65.8581 36.2872 61.1627 36.2872 55.3898V47.5804H38.8229V55.3898C38.8249 57.4834 39.6459 59.4906 41.1055 60.971C42.5652 62.4515 44.5444 63.2843 46.6088 63.2867C48.6734 63.2843 50.6527 62.4515 52.1126 60.9711C53.5725 59.4907 54.3937 57.4835 54.396 55.3898V53.6772H56.9317V55.3898C56.9317 61.1614 52.3015 65.8581 46.6088 65.8581Z" fill="#009B97"/>
<path d="M55.664 54.5876C53.8319 54.5855 52.0754 53.8467 50.7798 52.533C49.4842 51.2194 48.7553 49.4383 48.7529 47.5804C48.7549 45.7223 49.4837 43.9409 50.7794 42.627C52.075 41.3131 53.8317 40.574 55.664 40.572C57.1842 40.572 58.6283 41.0644 59.8391 41.994C60.102 42.2019 60.2737 42.5064 60.3168 42.8417C60.3599 43.177 60.2711 43.516 60.0695 43.7853C59.8679 44.0546 59.5699 44.2326 59.2398 44.2807C58.9098 44.3287 58.5744 44.243 58.3062 44.0421C57.5472 43.4554 56.6184 43.1391 55.664 43.1421C54.504 43.1435 53.3919 43.6114 52.5716 44.4432C51.7514 45.275 51.29 46.4028 51.2886 47.5791C51.2886 50.0246 53.2513 52.0148 55.664 52.0148C58.0767 52.0148 60.0394 50.0246 60.0394 47.5791C60.0394 47.2381 60.173 46.9111 60.4107 46.67C60.6485 46.4289 60.971 46.2934 61.3072 46.2934C61.6435 46.2934 61.966 46.4289 62.2038 46.67C62.4415 46.9111 62.5751 47.2381 62.5751 47.5791C62.5731 49.4373 61.8443 51.2187 60.5487 52.5326C59.253 53.8465 57.4963 54.5855 55.664 54.5876ZM37.5552 43.5201C27.0079 43.5201 18.4258 34.8171 18.4258 24.1213C18.4258 19.0196 20.3631 14.202 23.8801 10.557L25.6931 12.3544C22.6512 15.4929 20.9512 19.7206 20.9615 24.1213C20.9615 33.4003 28.4051 40.9487 37.5552 40.9487C46.7053 40.9487 54.1489 33.4003 54.1489 24.1213C54.155 21.9107 53.7286 19.7209 52.8944 17.6786C52.0603 15.6363 50.8349 13.7821 49.2892 12.2233L51.082 10.4053C52.8637 12.2023 54.2763 14.3399 55.238 16.6942C56.1997 19.0486 56.6914 21.5729 56.6846 24.1213C56.6859 34.8171 48.1038 43.5201 37.5552 43.5201Z" fill="#009B97"/>
<path d="M37.5545 48.866C36.2542 48.8646 35.0076 48.3403 34.0882 47.4079C33.1688 46.4756 32.6517 45.2114 32.6504 43.8929V41.927H35.1861V43.8916C35.1861 45.2159 36.2486 46.2933 37.5545 46.2933C38.8604 46.2933 39.9228 45.2159 39.9228 43.8916V41.927H42.4585V43.8916C42.4572 45.2102 41.9401 46.4745 41.0208 47.4071C40.1014 48.3396 38.8548 48.8643 37.5545 48.866Z" fill="#009B97"/>
<path d="M55.6647 49.2686C56.5841 49.2686 57.3294 48.5128 57.3294 47.5805C57.3294 46.6481 56.5841 45.8923 55.6647 45.8923C54.7453 45.8923 54 46.6481 54 47.5805C54 48.5128 54.7453 49.2686 55.6647 49.2686Z" fill="#009B97"/>
</svg>

<svg width="81" height="72" fill="none" xmlns="http://www.w3.org/2000/svg"><path d="M26.504 13.105a2.156 2.156 0 01-1.538-.644l-1.35-1.37a2.196 2.196 0 01-.637-1.56c0-.589.227-1.143.637-1.56l.885-.9a3.105 3.105 0 014.428 0 3.21 3.21 0 010 4.49l-.885.899a2.166 2.166 0 01-1.54.645zm-.841-3.574l.841.854.632-.64a.61.61 0 00-.019-.835.592.592 0 00-.823-.02l-.631.641zm22.744 3.574a2.154 2.154 0 01-1.538-.644l-.886-.899a3.172 3.172 0 01-.918-2.244c0-.849.325-1.646.918-2.247a3.114 3.114 0 012.213-.927c.83 0 1.626.333 2.214.927l.885.9c.41.416.638.97.638 1.559 0 .59-.227 1.144-.64 1.56l-1.347 1.37a2.165 2.165 0 01-1.54.645zm-.21-4.39a.586.586 0 00-.553.37.608.608 0 00.131.658l.632.64.842-.852-.632-.64a.592.592 0 00-.42-.176zm-1.588 57.143c-5.692 0-10.322-4.695-10.322-10.468v-7.81h2.536v7.81a7.961 7.961 0 002.282 5.581 7.74 7.74 0 005.504 2.316 7.742 7.742 0 005.504-2.316 7.962 7.962 0 002.283-5.581v-1.713h2.536v1.713c0 5.771-4.63 10.468-10.323 10.468z" fill="#009B97"/><path d="M55.664 54.588a6.87 6.87 0 01-4.884-2.055 7.067 7.067 0 010-9.906 6.87 6.87 0 014.884-2.055 6.8 6.8 0 014.175 1.422 1.299 1.299 0 01.23 1.791 1.255 1.255 0 01-1.763.257 4.297 4.297 0 00-2.642-.9 4.35 4.35 0 00-3.092 1.301 4.474 4.474 0 00-1.283 3.136c0 2.446 1.962 4.436 4.375 4.436 2.413 0 4.375-1.99 4.375-4.436 0-.34.134-.668.372-.909a1.26 1.26 0 011.793 0c.237.241.371.568.371.91a7.067 7.067 0 01-2.026 4.953 6.87 6.87 0 01-4.885 2.055zM37.555 43.52c-10.547 0-19.13-8.703-19.13-19.399 0-5.101 1.938-9.919 5.455-13.564l1.813 1.797a16.853 16.853 0 00-4.732 11.767c0 9.28 7.444 16.828 16.594 16.828 9.15 0 16.594-7.549 16.594-16.828.006-2.21-.42-4.4-1.255-6.442a16.73 16.73 0 00-3.605-5.456l1.793-1.818a19.292 19.292 0 014.156 6.29 19.507 19.507 0 011.447 7.426c0 10.696-8.581 19.4-19.13 19.4z" fill="#009B97"/><path d="M37.554 48.866a4.875 4.875 0 01-3.466-1.458 5.014 5.014 0 01-1.438-3.515v-1.966h2.536v1.965c0 1.324 1.063 2.401 2.368 2.401 1.306 0 2.369-1.077 2.369-2.401v-1.965h2.535v1.965a5.016 5.016 0 01-1.437 3.515 4.877 4.877 0 01-3.467 1.459zm18.111.403c.92 0 1.664-.756 1.664-1.688 0-.933-.745-1.689-1.664-1.689-.92 0-1.665.756-1.665 1.688 0 .933.745 1.689 1.665 1.689z" fill="#009B97"/></svg>
